packages/foundations/assets/icons/functional/images/editing/bin_28.svg

<svg width="28" height="28" viewBox="0 0 28 28" fill="none" xmlns="http://www.w3.org/2000/svg">
<g clip-path="url(#clip0_2204_2776)">
<path fill-rule="evenodd" clip-rule="evenodd" d="M3.5 9.625C3.5 9.13281 3.88281 8.75 4.375 8.75H5.38667C6.75395 8.75 7.875 9.87105 7.875 11.2383V23.625C7.875 24.1172 8.2852 24.5 8.75 24.5H19.3867C19.7969 24.5 20.125 24.1719 20.125 23.7617V11.2656C20.125 9.87105 21.246 8.75 22.6406 8.75H23.625C24.1172 8.75 24.5 9.13281 24.5 9.625C24.5 10.1172 24.1172 10.5 23.625 10.5H22.6406C22.2304 10.5 21.875 10.8554 21.875 11.2656V23.7617C21.875 25.129 20.754 26.25 19.3867 26.25H8.75C7.30083 26.25 6.125 25.0742 6.125 23.625V11.2383C6.125 10.8281 5.79688 10.5 5.38667 10.5H4.375C3.88281 10.5 3.5 10.1172 3.5 9.625ZM17.5 1.75C17.9922 1.75 18.375 2.13281 18.375 2.625V5.25H23.625C24.1172 5.25 24.5 5.63281 24.5 6.125C24.5 6.61719 24.1172 7 23.625 7H4.375C3.88281 7 3.5 6.61719 3.5 6.125C3.5 5.63281 3.88281 5.25 4.375 5.25H9.625V2.625C9.625 2.13281 10.0352 1.75 10.5 1.75H17.5ZM16.625 3.5H11.375V5.25H16.625V3.5ZM9.625 21.875V12.25C9.625 11.7578 10.0352 11.375 10.5 11.375C10.9922 11.375 11.375 11.7578 11.375 12.25V21.875C11.375 22.3672 10.9922 22.75 10.5 22.75C10.0352 22.75 9.625 22.3672 9.625 21.875ZM13.125 21.875V12.25C13.125 11.7578 13.5078 11.375 14 11.375C14.4922 11.375 14.875 11.7578 14.875 12.25V21.875C14.875 22.3672 14.4922 22.75 14 22.75C13.5078 22.75 13.125 22.3672 13.125 21.875ZM16.625 21.875V12.25C16.625 11.7578 17.0352 11.375 17.5 11.375C17.9922 11.375 18.375 11.7578 18.375 12.25V21.875C18.375 22.3672 17.9922 22.75 17.5 22.75C17.0352 22.75 16.625 22.3672 16.625 21.875Z" fill="#1A1C1F"/>
</g>
<defs>
<clipPath id="clip0_2204_2776">
<rect width="28" height="28" fill="white"/>
</clipPath>
</defs>
</svg>

<svg xmlns="http://www.w3.org/2000/svg" width="28" height="28" fill="none"><g clip-path="url(#a)"><path fill="#1A1C1F" fill-rule="evenodd" d="M3.5 9.625c0-.492.383-.875.875-.875h1.012a2.497 2.497 0 0 1 2.488 2.488v12.387c0 .492.41.875.875.875h10.637c.41 0 .738-.328.738-.738V11.266a2.51 2.51 0 0 1 2.516-2.516h.984c.492 0 .875.383.875.875a.864.864 0 0 1-.875.875h-.984a.78.78 0 0 0-.766.766v12.496a2.497 2.497 0 0 1-2.488 2.488H8.75a2.626 2.626 0 0 1-2.625-2.625V11.238a.735.735 0 0 0-.738-.738H4.375a.864.864 0 0 1-.875-.875m14-7.875c.492 0 .875.383.875.875V5.25h5.25c.492 0 .875.383.875.875a.864.864 0 0 1-.875.875H4.375a.864.864 0 0 1-.875-.875c0-.492.383-.875.875-.875h5.25V2.625c0-.492.41-.875.875-.875zm-.875 1.75h-5.25v1.75h5.25zm-7 18.375V12.25c0-.492.41-.875.875-.875.492 0 .875.383.875.875v9.625a.864.864 0 0 1-.875.875.88.88 0 0 1-.875-.875m3.5 0V12.25c0-.492.383-.875.875-.875s.875.383.875.875v9.625a.864.864 0 0 1-.875.875.864.864 0 0 1-.875-.875m3.5 0V12.25c0-.492.41-.875.875-.875.492 0 .875.383.875.875v9.625a.864.864 0 0 1-.875.875.88.88 0 0 1-.875-.875" clip-rule="evenodd"/></g><defs><clipPath id="a"><path fill="#fff" d="M0 0h28v28H0z"/></clipPath></defs></svg>
